X:1
T:Cuckoo's Nest, The
L:1/8
M:4/4
I:linebreak $
K:D
V:1 treble
V:1
 FG || "D" AFDF AFDF | ABAF DEFD | "C"GE=CE GECE | GAGE "(A7)"=C2 E2 |$
 (3"D" A,B,C DF Adfa | fdAF "G"G2 FG |  "D" AFDF "A7"EDCE | "D" D2 DD D2 ::$
 FG || "D" A d2 d2 f ed | "A"c2 A2 A3 B | "C"=c2 cB cedc | "G"BAGF G2 FG |$
 "D" AFDF Adfa |  fdAF "G"G2 FG | "D" AFDF "A7"EDCE | "D" D2 DD D2 :|
